!!!COM1: Joplin, Scott
!!!CDT1: 1868/11/24/-1917/04/01/
!!!COM2: Hayden, Scott
!!!CDT2: 1882///-1915///
!!!OTL: Sunflower Slow Drag
!!!ODT: 1901///
**kern	**kern	**dynam
*staff2	*staff1	*staff1/2
*Ipiano	*Ipiano	*Ipiano
*>[I,A,A1,A,A2,B,B1,B,B2,C,D,D1,D,D2,E,E1,E,E2]	*>[I,A,A1,A,A2,B,B1,B,B2,C,D,D1,D,D2,E,E1,E,E2]	*>[I,A,A1,A,A2,B,B1,B,B2,C,D,D1,D,D2,E,E1,E,E2]
*>norep[I,A,A2,B,B2,C,D,D2,E,E2]	*>norep[I,A,A2,B,B2,C,D,D2,E,E2]	*>norep[I,A,A2,B,B2,C,D,D2,E,E2]
*>I	*>I	*>I
*clefF4	*clefG2	*clefG2
*k[b-e-]	*k[b-e-]	*k[b-e-]
*M2/4	*M2/4	*M2/4
*MM90	*MM90	*MM90
=1-	=1-	=1-
16dLK	16ddLK	.
8f	8ff	.
16B-Jk	16b-Jk	.
4d	4dd	.
=2	=2	=2
16GLL	16gLL	.
16A	16a	.
16B-	16b-	.
[16DJJ	[16dJJ	.
4D]	4d]	.
=3	=3	=3
16E-LL	16e-LL	.
16F	16f	.
16G	16g	.
16E-JJ	16e-JJ	.
16DLK	16dLK	.
8C	8c	.
16FJk	16fJk	.
=4	=4	=4
8FF	8F	.
8FF 8FL	8f 8ffL	.
8EE- 8E-	8g 8gg	.
8CC 8CJ	8a 8aaJ	.
=5!|:	=5!|:	=5!|:
*>A	*>A	*>A
8BBB- 8BB-L	16b- 16bb-LL	.
.	16dd	.
8F 8B- 8dJ	16ff	.
.	[16a [16aaJJ	.
8FFL	16a] 16aaLK]	.
.	8g 8gg	.
8F 8B- 8dJ	.	.
.	16b- 16ddJk	.
=6	=6	=6
8BB-L	16f 16ffLL	.
.	16b- 16dd	.
8F 8B- 8dJ	16g 16gg	.
.	[16f [16ffJJ	.
8DL	16f] 16ffLL]	.
.	16dd	.
8F 8B- 8dJ	16b-	.
.	16fJJ	.
=7	=7	=7
8E- 8e-L	16ggLL	.
.	(16g	.
8BB- 8B-J	16g#	.
.	(16aJJ)	.
8C 8cL	16b-LL)	.
.	16ggn	.
8C 8c#J	16gn	.
.	16eenJJ	.
=8	=8	=8
8D 8dL	16ffLL	.
.	16f	.
8FF 8FJ	16dd	.
.	[16g [16ggJJ	.
8EE- 8E-L	16g] 16ggLK]	.
.	8a 8aa	.
8CC 8CJ	.	.
.	16ee- 16ffJk	.
=9	=9	=9
8BBB- 8BB-L	16b- 16bb-LL	.
.	16dd	.
8F 8B- 8dJ	16ff	.
.	[16a [16aaJJ	.
8FFL	16a] 16aaLK]	.
.	8g 8gg	.
8F 8B- 8dJ	.	.
.	16b- 16ddJk	.
=10	=10	=10
8BB-L	16f 16ffLL	.
.	16b- 16dd	.
8F 8B- 8dJ	16g 16gg	.
.	[16f [16ffJJ	.
8DL	16f] 16ffLL]	.
.	16dd	.
8D-J	16b-	.
.	16fJJ	.
=11	=11	=11
8CL	16ccLL	.
.	16bn	.
8A 8c 8fJ	16cc	.
.	16ddJJ	.
8CL	16ccLL	.
.	16b-	.
8G 8B- 8c 8enJ	16a	.
.	16gJJ	.
=12	=12	=12
8F 8A 8cL	16fLL	.
.	16cc	.
8FF 8FJ	16ee-	.
.	[16g [16ggJJ	.
8EE- 8E-L	16g] 16ggLK]	.
.	8a 8aa	.
8CC 8CJ	.	.
.	16ee- 16ffJk	.
=13	=13	=13
8BBB- 8BB-L	16b- 16bb-LL	.
.	16dd	.
8F 8B- 8dJ	16ff	.
.	[16a [16aaJJ	.
8FFL	16a] 16aaLK]	.
.	8g 8gg	.
8F 8B- 8dJ	.	.
.	16b- 16ddJk	.
=14	=14	=14
8BB-L	16f 16ffLL	.
.	16b- 16dd	.
8F 8B- 8dJ	16g 16gg	.
.	[16f [16ffJJ	.
8DL	16f] 16ffLL]	.
.	16dd	.
8F 8B- 8dJ	16b-	.
.	16fJJ	.
=15	=15	=15
8E- 8e-L	16ggLL	.
.	(16g	.
8BB- 8B-J	16g#	.
.	16aJJ	.
8C 8cL	16b-LL)	.
.	16ggn	.
8C 8c#J	16gn	.
.	16eenJJ	.
=16	=16	=16
8D 8dL	16f 16ffLL	.
.	16b- 16dd	.
8E- 8e-J	16g 16gg	.
.	[16a [16aaJJ	.
8F 8fL	16a] 16aaLK]	.
.	8g 8gg	.
8E- 8e-J	.	.
.	16b- 16ee-Jk	.
=17	=17	=17
8D 8dL	16f 16ffLL	.
.	16b- 16dd	.
8F 8B- 8dJ	16g 16gg	.
.	[16f [16ffJJ	.
8GGL	16f] 16ffLL]	.
.	16dd	.
8G 8Bn 8d 8fJ	16bn	.
.	16gJJ	.
=18	=18	=18
8C 8G 8B-L	8en 8ddL	.
8C 8G 8B-J	8d 8ccJ	.
8F 8AL	8e- 8ddL	.
8F 8AJ	8e- 8ccJ	.
=19	=19	=19
*>A1	*>A1	*>A1
8BB- 8B-L	[2d 2b-	.
16FF 16FL	.	.
[16GG [16GJJ	.	.
16GG] 16GLL]	.	.
16FF 16F	.	.
16DD 16D	.	.
16CC 16CJJ	.	.
=20	=20	=20
8BBB- 8BB-L	8d] 8b-L	.
8FF 8FJ	8f 8ffJ	.
8EE- 8E-L	8g 8ggL	.
8CC 8CJ	8a 8aaJ	.
=21:|!	=21:|!	=21:|!
*>A2	*>A2	*>A2
8BB- 8B-L	[2d 2b-	.
16FF 16FL	.	.
[16GG [16GJJ	.	.
16GG] 16GLL]	.	.
16FF 16F	.	.
16DD 16D	.	.
16CC 16CJJ	.	.
=22	=22	=22
8BBB- 8BB-L	8d] 8b-	<
8FF 8FJ	8r	.
8GG 8GL	4r	.
8GG# 8G#J	.	.
=23!|:	=23!|:	=23!|:
*>B	*>B	*>B
8AA 8AL	8r	.
8F 8c 8e-J	8a 8ee- 8ggL	.
8FFL	8a 8ee- 8gg	f
8F 8c 8e-J	8a 8ee- 8ggJ	.
=24	=24	=24
8CL	16a 16ee- 16ffLK	.
.	8a 8ee- 8aa	.
8F 8c 8e-J	.	.
.	[16a [16ee- [16ggJk	.
8FFL	16a] 16ee-] 16ggLL]	.
.	16ff	.
8F 8c 8e-J	16ee-	.
.	16ccJJ	.
=25	=25	=25
8BB-L	8b-L	.
8F 8B- 8dJ	8b- 8dd 8ggJ	.
8FFL	8b- 8dd 8ggL	.
8F 8B- 8dJ	8b- 8dd 8ggJ	.
=26	=26	=26
8BB-L	16b- 16dd 16ffLK	.
.	8b- 8dd 8bb-	.
8F 8B- 8dJ	.	.
.	[16b- [16dd [16ggJk	.
8FFL	16b-] 16dd] 16ggLL]	.
.	16dd	.
8F 8B- 8dJ	16ff	.
.	16b- 16bb-JJ	.
=27	=27	=27
8CL	8a 8ee- 8aaL	.
8F 8c 8e-J	16g# 16ee- 16gg#L	.
.	[16a [16ee- [16aaJJ	.
8FFL	16a] 16ee-] 16aaLK]	.
.	8b- 8bb-	.
8F 8c 8e-J	.	.
.	16ffJk	.
=28	=28	=28
8AAL	8cc 8ee- 8cccL	.
8F 8A 8e-J	16bn 16bbnL	.
.	[16cc [16ee- [16cccJJ	.
8FFL	16cc] 16ee-] 16cccLK]	.
.	8cc# 8ccc#	.
8F 8A 8e-J	.	.
.	16ffJk	.
=29	=29	=29
8BB-L	16dd 16dddLL	.
.	16b-	.
8F 8B- 8dJ	16dd	.
.	16ffJJ	.
8En 8B- 8c#L	16a 16cc# 16aaLK	.
.	8g 8cc# 8gg	.
8E 8B- 8c#J	.	.
.	[16f [16dd [16ffJk	.
=30	=30	=30
8F 8B- 8dL	2f] 2dd] 2ff]	<
8FF 8FJ	.	.
8GG 8GL	.	.
8GG# 8G#J	.	.
=31	=31	=31
8AA 8AL	8r	.
8F 8c 8e-J	8a 8ee- 8ggL	.
8FFL	8a 8ee- 8gg	f
8F 8c 8e-J	8a 8ee- 8ggJ	.
=32	=32	=32
8CL	16a 16ee- 16ffLK	.
.	8a 8ee- 8aa	.
8F 8c 8e-J	.	.
.	[16a [16ee- [16ggJk	.
8FFL	16a] 16ee-] 16ggLL]	.
.	16ff	.
8F 8c 8e-J	16ee-	.
.	16ccJJ	.
=33	=33	=33
8BB-L	8b-L	.
8F 8B- 8dJ	8b- 8dd 8ggJ	.
8FFL	8b- 8dd 8ggL	.
8F 8B- 8dJ	8b- 8dd 8ggJ	.
=34	=34	=34
8BB-L	16b- 16dd 16ggLK	.
.	8b- 8dd 8ff	.
8F 8B- 8dJ	.	.
.	[16b- [16dd [16ffJk	.
8DL	16b-] 16dd] 16ffLL]	.
.	16b-	.
8F 8A- 8B- 8dJ	16dd	.
.	16ffJJ	.
=35	=35	=35
8E- 8G 8B- 8e-L	8g 8ggL	.
8GG 8GJ	8b- 8bb-J	.
8FF 8FL	8a 8aaL	.
8EE- 8E-J	8g 8ggJ	.
=36	=36	=36
8DD 8DL	16f 16ffLL	.
.	16b- 16dd	.
8F 8B- 8dJ	16g 16gg	.
.	[16f [16ffJJ	.
8GGL	16f] 16ffLL]	.
.	16dd	.
8G 8Bn 8d 8fJ	16bn	.
.	16gJJ	.
=37	=37	=37
8C 8G 8B-L	8en 8ddL	.
8C 8G 8B-J	8e 8ccJ	.
8F 8AL	8e- 8ddL	.
8F 8AJ	8e- 8ccJ	.
=38	=38	=38
*>B1	*>B1	*>B1
8BB- 8B-L	2d 2b-	<
8FF 8FJ	.	.
8GG 8GL	.	.
8GG# 8G#J	.	.
=39:|!	=39:|!	=39:|!
*>B2	*>B2	*>B2
8BB- 8B-L	8d 8b-L	.
8FF 8FJ	8f 8ffJ	.
8EE- 8E-L	8g 8ggL	.
8CC 8CJ	8a 8aaJ	.
=40	=40	=40
*>C	*>C	*>C
8BBB- 8BB-L	16b- 16bb-LL	.
.	16dd	.
8F 8B- 8dJ	16ff	.
.	[16a [16aaJJ	.
8FFL	16a] 16aaLK]	.
.	8g 8gg	.
8F 8B- 8dJ	.	.
.	16b- 16ddJk	.
=41	=41	=41
8BB-L	16f 16ffLL	.
.	16b- 16dd	.
8F 8B- 8dJ	16g 16gg	.
.	[16f [16ffJJ	.
8DL	16f] 16ffLL]	.
.	16dd	.
8F 8B- 8dJ	16b-	.
.	16fJJ	.
=42	=42	=42
8E- 8e-L	16ggLL	.
.	(16g	.
8BB- 8B-J	16g#	.
.	16aJJ	.
8C 8cL	16b-LL)	.
.	16ggn	.
8C 8c#J	16gn	.
.	16eenJJ	.
=43	=43	=43
8D 8dL	16ffLL	.
.	16f	.
8FF 8FJ	16dd	.
.	[16g [16ggJJ	.
8EE- 8E-L	16g] 16ggLK]	.
.	8a 8aa	.
8CC 8CJ	.	.
.	16ee- 16ffJk	.
=44	=44	=44
8BBB- 8BB-L	16b- 16bb-LL	.
.	16dd	.
8F 8B- 8dJ	16ff	.
.	[16a [16aaJJ	.
8FFL	16a] 16aaLK]	.
.	8g 8gg	.
8F 8B- 8dJ	.	.
.	16b- 16ddJk	.
=45	=45	=45
8BB-L	16f 16ffLL	.
.	16b- 16dd	.
8F 8B- 8dJ	16g 16gg	.
.	[16f [16ffJJ	.
8DL	16f] 16ffLL]	.
.	16dd	.
8D-J	16b-	.
.	16fJJ	.
=46	=46	=46
8CL	16ccLL	.
.	16bn	.
8A 8c 8fJ	16cc	.
.	16ddJJ	.
8CL	16ccLL	.
.	16b-	.
8G 8B- 8c 8enJ	16a	.
.	16gJJ	.
=47	=47	=47
8F 8A 8cL	16fLL	.
.	16cc	.
8FF 8FJ	16ee-	.
.	[16g [16ggJJ	.
8EE- 8E-L	16g] 16ggLK]	.
.	8a 8aa	.
8CC 8CJ	.	.
.	16ee- 16ffJk	.
=48	=48	=48
8BBB- 8BB-L	16b- 16bb-LL	.
.	16dd	.
8F 8B- 8dJ	16ff	.
.	[16a [16aaJJ	.
8FFL	16a] 16aaLK]	.
.	8g 8gg	.
8F 8B- 8dJ	.	.
.	16b- 16ddJk	.
=49	=49	=49
8BB-L	16f 16ffLL	.
.	16b- 16dd	.
8F 8B- 8dJ	16g 16gg	.
.	[16f [16ffJJ	.
8DL	16f] 16ffLL]	.
.	16dd	.
8F 8B- 8dJ	16b-	.
.	16fJJ	.
=50	=50	=50
8E- 8e-L	16ggLL	.
.	(16g	.
8BB- 8B-J	16g#	.
.	(16aJJ)	.
8C 8cL	16b-LL)	.
.	16ggn	.
8C 8c#J	16gn	.
.	16eenJJ	.
=51	=51	=51
8D 8dL	16f 16ffLL	.
.	16b- 16dd	.
8E- 8e-J	16g 16gg	.
.	[16a [16aaJJ	.
8F 8fL	16a] 16aaLK]	.
.	8g 8gg	.
8E- 8e-J	.	.
.	16b- 16ee-Jk	.
=52	=52	=52
8D 8dL	16f 16ffLL	.
.	16b- 16dd	.
8F 8B- 8dJ	16g 16gg	.
.	[16f [16ffJJ	.
8FFL	16f] 16ffLL]	.
.	16dd	.
8G 8Bn 8d 8fJ	16bn	.
.	16gJJ	.
=53	=53	=53
8C 8G 8B-L	8en 8ddL	.
8C 8G 8B-J	8e 8ccJ	.
8F 8AL	8e- 8ddL	.
8F 8AJ	8e- 8ccJ	.
=54	=54	=54
8BB- 8B-L	[2d 2b-	.
16FF 16FL	.	.
[16GG [16GJJ	.	.
16GG] 16GLL]	.	.
16FF 16F	.	.
16DD 16D	.	.
16CC 16CJJ	.	.
=55	=55	=55
8BBB- 8BB-	8d] 8b-	.
8r	8r	.
8BBB- 8BB-	8b- 8dd 8ff 8bb-	.
8r	8r	.
=56	=56	=56
*k[b-e-a-]	*k[b-e-a-]	*k[b-e-a-]
8BBB- 8BB-L	16f 16a- 16ddLK	.
.	8f 8a- 8dd	.
8BBBn 8BBnJ	.	.
.	16f 16a- 16dd-Jk	.
8CC 8CL	16f 16a- 16ccLL	.
.	16f 16a- 16cc	.
8CC# 8C#J	16f 16a- 16cc-	.
.	[16f [16a- [16b-JJ	.
=57	=57	=57
*	*^	*
8DD 8DL	8f] 8a-] 8b-L]	8r	.
8BBB- 8BB-J	16ffL	8a-	.
.	16b-JJ	.	.
8CCn 8CnL	16ffLL	8a-	.
.	16b-	.	.
8DD 8DJ	16ff	8a-	.
.	16b-JJ	.	.
*	*v	*v	*
=58	=58	=58
8EE- 8E-L	2g 2ee-	.
16GG 16GL	.	.
16AA- 16A-JJ	.	.
16AAn 16AnLL	.	.
16BB- 16B-	.	.
16C 16c	.	.
16D 16dJJ	.	.
=59	=59	=59
8E- 8e-L	8g 8ee-	.
8BBB- 8BB-J	8r	.
8GGG 8GGL	4r	.
8GGG- 8GG-J	.	.
=60!|:	=60!|:	=60!|:
*>D	*>D	*>D
4FFF 4FF	8e- 8an 8ddL	p
.	16e- 16a 16ccL	.
.	[16e- [16a [16ddJJ	.
4AAAn 4AAn	16e-] 16a] 16ddLL]	.
.	16cc	.
.	16a	.
.	16fJJ	.
=61	=61	=61
4BBB- 4BB-	8a- 8dd 8ggL	.
.	16a- 16dd 16ffL	.
.	[16a- [16dd [16ggJJ	.
4DD 4D	16a-] 16dd] 16ggLL]	.
.	16ff	.
.	16dd	.
.	16b-JJ	.
=62	=62	=62
8EE- 8E-L	16ff 16fffLL	.
.	16gg 16bb-	.
8B- 8e- 8gJ	16ee- 16eee-	.
.	[16dd [16dddJJ	.
8BB-L	16dd] 16dddLK]	.
.	8cc 8ccc	.
8B- 8e- 8gJ	.	.
.	16ee- 16ggJk	.
=63	=63	=63
8E-L	16b- 16bb-LL	.
.	16ee- 16gg	.
8B- 8e- 8gJ	16cc 16ccc	.
.	[16b- [16bb-JJ	.
8GGL	16b-] 16bb-LL]	.
.	16ee-	.
8B- 8e- 8gJ	16gg	.
.	16bb-JJ	.
=64	=64	=64
8AA-L	16ee- 16eee-LL	.
.	16aa-	.
8c 8e- 8a-J	16ccc	.
.	[16ee- [16eee-JJ	.
8AA-L	16ee-] 16eee-LK]	.
.	8ff 8fff	.
8c- 8e- 8a-J	.	.
.	16ee- 16eee-Jk	.
=65	=65	=65
8E-L	16b- 16bb-LL	.
.	16ee-	.
8B- 8e- 8gJ	16gg	.
.	[16b- [16bb-JJ	.
8GG 8GL	16b-] 16bb-LK]	.
.	8cc 8ccc	.
8GG- 8G-J	.	.
.	16b- 16bb-Jk	.
=66	=66	=66
8FF 8FL	16f 16ffLL	.
.	16ee- 16eee-	.
8F 8B- 8dJ	16dd 16ddd	.
.	[16cc [16cccJJ	.
8FL	16cc] 16cccLL]	.
.	16f 16ff	.
8An 8e-J	16g 16gg	.
.	16an 16aanJJ	.
=67	=67	=67
8B- 8dL	4.b- 4.bb-	.
8BBB- 8BB-J	.	.
8GGG 8GGL	.	.
8GGG- 8GG-J	8r	.
=68	=68	=68
4FFF 4FF	8e- 8an 8ddL	.
.	16e- 16a 16ccL	.
.	[16e- [16a [16ddJJ	.
4AAAn 4AAn	16e-] 16a] 16ddLL]	.
.	16cc	.
.	16a	.
.	16fJJ	.
=69	=69	=69
4BBB- 4BB-	8a- 8dd 8ggL	.
.	16a- 16dd 16ffL	.
.	[16a- [16dd [16ggJJ	.
4DD 4D	16a-] 16dd] 16ggLL]	.
.	16ff	.
.	16dd	.
.	16b-JJ	.
=70	=70	=70
8EE- 8E-L	16ff 16fffLL	.
.	16gg 16bb-	.
8B- 8e- 8gJ	16ee- 16eee-	.
.	[16dd [16dddJJ	.
8BB-L	16dd] 16dddLK]	.
.	8cc 8ccc	.
8B- 8e- 8gJ	.	.
.	16ee- 16ggJk	.
=71	=71	=71
8E-L	16b- 16bb-LL	.
.	16ee- 16gg	.
8B- 8e- 8gJ	16cc 16ccc	.
.	[16b- [16bb-JJ	.
8GG 8GL	16b-] 16bb-LL]	.
.	16ee-	.
8B- 8e- 8gJ	16gg	.
.	16b- 16bb-JJ	.
=72	=72	=72
8AA- 8A-L	4cc 4ff 4aa- 4ccc	.
8c 8f 8a-J	.	.
8FF 8FL	8cc 8ff 8aa- 8cccL	.
16GG 16GL	8cc- 8ff 8aa- 8ccc-J	.
16AA- 16A-JJ	.	.
=73	=73	=73
8BB- 8B-L	16b- 16ee- 16gg 16bb-LL	.
.	16ee- 16gg	.
8B- 8e- 8gJ	16ccn 16cccn	.
.	[16b- [16bb-JJ	.
8CL	16b-] 16bb-LL]	.
.	16gg	.
8B- 8c 8enJ	16een	.
.	16ccJJ	.
=74	=74	=74
8F 8c 8e-L	8an 8ggL	.
8F 8c 8e-J	8a 8ffJ	.
8B- 8dL	8a- 8ggL	.
8B- 8dJ	8a- 8ffJ	.
=75	=75	=75
*>D1	*>D1	*>D1
8E- 8e-L	2g 2ee-	.
8BBB- 8BB-J	.	.
8GGG 8GGL	.	.
8GGG- 8GG-J	.	.
=76:|!	=76:|!	=76:|!
*>D2	*>D2	*>D2
8E- 8e-L	4g 4ee-	.
8BB- 8B-J	.	.
4BBB- 4BB-	8b- 8bb-L	.
.	8bn 8bbnJ	.
=77!|:	=77!|:	=77!|:
*>E	*>E	*>E
8FF 8FL	16cc 16cccLL	f
.	16aa-	.
8B- 8d 8a-J	16bb-	.
.	[16cc [16cccJJ	.
8BB-L	16cc] 16cccLK]	.
.	8cc# 8ccc#	.
8B- 8d 8a-J	.	.
.	16aa-Jk	.
=78	=78	=78
8FL	16dd 16dddLL	.
.	16aa-	.
8B- 8d 8a-J	16bb-	.
.	[16dd [16dddJJ	.
8BB-L	16dd] 16dddLK]	.
.	8gg 8ggg	.
8B- 8d 8a-J	.	.
.	16ff 16fffJk	.
=79	=79	=79
8E-L	16ee- 16eee-LL	.
.	16gg	.
8B- 8e- 8gJ	16bb-	.
.	[16dd [16dddJJ	.
8BB-L	16dd] 16dddLK]	.
.	8cc 8ccc	.
8B- 8e- 8gJ	.	.
.	16ee- 16ggJk	.
=80	=80	=80
8E-L	[4b- [4bb-	.
8B- 8e- 8gJ	.	.
8BB-L	16b-] 16bb-LL]	.
.	16b- 16bb-	.
8B- 8e- 8gJ	16cc 16ccc	.
.	16dd 16dddJJ	.
=81	=81	=81
8FL	16ee- 16eee-LL	.
.	16aa-	.
8B- 8d 8a-J	16bb-	.
.	[16dd [16dddJJ	.
8BB-L	16dd] 16dddLK]	.
.	8cc 8ccc	.
8B- 8d 8a-J	.	.
.	16ddJk	.
=82	=82	=82
8DL	[4b- [4bb-	.
8B- 8d 8a-J	.	.
8BB-L	16b-] 16bb-LL]	.
.	16b- 16bb-	.
8B- 8d 8a-J	16cc 16ccc	.
.	16dd 16dddJJ	.
=83	=83	=83
8E-L	16ee- 16eee-LL	.
.	16gg	.
8B- 8e- 8gJ	16bb-	.
.	[16dd [16dddJJ	.
8BB-L	16dd] 16dddLK]	.
.	8cc 8ccc	.
8B- 8e- 8gJ	.	.
.	16ee-Jk	.
=84	=84	=84
8E-L	4b- 4bb-	.
8B- 8e- 8gJ	.	.
4BBB- 4BB-	8b- 8aa- 8bb-L	.
.	8bn 8aa- 8bbnJ	.
=85	=85	=85
8FF 8FL	16cc 16cccLL	.
.	16aa-	.
8B- 8d 8a-J	16bb-	.
.	[16cc [16cccJJ	.
8BB-L	16cc] 16cccLK]	.
.	8cc# 8ccc#	.
8B- 8d 8a-J	.	.
.	16aa-Jk	.
=86	=86	=86
8FL	16dd 16dddLL	.
.	16aa-	.
8B- 8d 8a-J	16bb-	.
.	[16dd [16dddJJ	.
8BB-L	16dd] 16dddLK]	.
.	8gg 8ggg	.
8B- 8d 8a-J	.	.
.	16ff 16fffJk	.
=87	=87	=87
8E-L	16ee- 16eee-LL	.
.	16gg	.
8B- 8e- 8gJ	16bb-	.
.	[16dd [16dddJJ	.
8BB-L	16dd] 16dddLK]	.
.	8cc 8ccc	.
8B- 8e- 8gJ	.	.
.	16ee- 16ggJk	.
=88	=88	=88
8E-L	16b- 16bb-LL	.
.	16ee- 16gg	.
8B- 8e- 8gJ	16cc 16ccc	.
.	[16b- [16bb-JJ	.
8GG 8GL	16b-] 16bb-LL]	.
.	16ee-	.
8B- 8e- 8gJ	16gg	.
.	16b- 16bb-JJ	.
=89	=89	=89
8AA- 8A-L	4cc 4ff 4aa- 4ccc	.
8c 8f 8a-J	.	.
8FF 8FL	8cc 8ff 8aa- 8cccL	.
16GG 16GL	8cc- 8ff 8aa- 8ccc-J	.
16AA- 16A-JJ	.	.
=90	=90	=90
8BB- 8B-L	16b- 16ee- 16gg 16bb-LL	.
.	16ee- 16gg	.
8B- 8e- 8gJ	16ccn 16cccn	.
.	[16b- [16bb-JJ	.
8CL	16b-] 16bb-LL]	.
.	16gg	.
8B- 8c 8enJ	16een	.
.	16ccJJ	.
=91	=91	=91
8F 8c 8e-L	8an 8ggL	.
8F 8c 8e-J	8a 8ffJ	.
8B- 8dL	8a- 8ggL	.
8B- 8dJ	8a- 8ffJ	.
=92	=92	=92
*>E1	*>E1	*>E1
8E- 8e-L	4g 4ee-	.
8BB- 8B-J	.	.
4BBB- 4BB-	8b- 8aa- 8bb-L	.
.	8bn 8aa- 8bbnJ	.
=93:|!	=93:|!	=93:|!
*>E2	*>E2	*>E2
8E- 8e-L	4g 4ee-	.
8BB- 8B-J	.	.
8EE- 8E-	8ee- 8gg 8bb- 8eee-	.
8r	8r	.
==	==	==
*-	*-	*-
!!!ENC: Craig Stuart Sapp
!!!END: 2004/11/28/
